Newaita-dark/apps/32/com.github.bartzaalberg.bookmark-manager.svg

<svg height="32" viewBox="0 0 32 32" width="32" xmlns="http://www.w3.org/2000/svg" xmlns:xlink="http://www.w3.org/1999/xlink"><linearGradient id="a" gradientUnits="userSpaceOnUse" x1="15.87652" x2="15.87652" y1="28.033936" y2="29.35698000003"><stop offset="0" stop-opacity=".27451"/><stop offset="1" stop-opacity="0"/></linearGradient><linearGradient id="b"><stop offset="0" stop-opacity=".313726"/><stop offset=".222222" stop-opacity=".27451"/><stop offset="1" stop-opacity="0"/></linearGradient><radialGradient id="c" cx="450.908936" cy="189.579361" gradientTransform="matrix(.00000017 -.0781325 -.140638 -.0000001 50.146086 63.595333)" gradientUnits="userSpaceOnUse" r="21.166656" xlink:href="#b"/><radialGradient id="d" cx="450.908936" cy="189.579361" gradientTransform="matrix(-.00000017 .0781325 .140638 .0000001 -18.393049 -7.52748)" gradientUnits="userSpaceOnUse" r="21.166656" xlink:href="#b"/><radialGradient id="e" cx="450.908936" cy="189.579361" gradientTransform="matrix(-.00000017 -.0781325 .140638 -.0000001 -18.393049 63.595333)" gradientUnits="userSpaceOnUse" r="21.166656" xlink:href="#b"/><radialGradient id="f" cx="450.908936" cy="189.579361" gradientTransform="matrix(.00000017 .0781325 -.140638 .0000001 50.146084 -7.527479)" gradientUnits="userSpaceOnUse" r="21.166656" xlink:href="#b"/><linearGradient id="g"><stop offset="0" stop-color="#424242"/><stop offset="1" stop-color="#616161"/></linearGradient><linearGradient id="h" gradientTransform="matrix(.0753497 0 0 .217412 -5.854013 33.641348)" gradientUnits="userSpaceOnUse" x1="306.916656" x2="305.954559" xlink:href="#g" y1="-25.791676" y2="-141.414581"/><linearGradient id="i" gradientTransform="matrix(4.556143 0 0 13.146184 -353.972656 2034.180176)" gradientUnits="userSpaceOnUse" x1="165.484848" x2="165.484848" xlink:href="#g" y1="-25.791672" y2="-141.414581"/><linearGradient id="j"><stop offset="0" stop-color="#42a5f5"/><stop offset="1" stop-color="#64b5f6"/></linearGradient><linearGradient id="k" gradientUnits="userSpaceOnUse" x1="275.166301" x2="275.166301" xlink:href="#j" y1="233.49969318561" y2="-168.66647475188"/><linearGradient id="l" gradientUnits="userSpaceOnUse" x1="370.416376" x2="370.416376" xlink:href="#j" y1="80.0412949526" y2="-168.66671710991"/><linearGradient id="m" gradientUnits="userSpaceOnUse" x1="15.21500250003" x2="15.21500250003" y1="28.033934" y2="2.89610500006"><stop offset="0" stop-color="#bdbdbd"/><stop offset="1" stop-color="#e0e0e0"/></linearGradient><linearGradient id="n" gradientUnits="userSpaceOnUse" x1="6.61521800006" x2="6.61521800006" xlink:href="#g" y1="10.5036216875" y2="9.18057812501"/><linearGradient id="o" gradientUnits="userSpaceOnUse" x1="6.61521800006" x2="6.61521800006" xlink:href="#g" y1="21.4187276875" y2="20.09568412501"/><path d="m7.9375 28.035156h15.878906v1.320313h-15.878906zm0 0" fill="url(#a)"/><path d="m23.816406 28.035156h2.644532v-1.324218h-2.644532zm0 0" fill="url(#c)"/><path d="m7.9375 28.035156h-2.644531v1.320313h2.644531zm0 0" fill="url(#d)"/><path d="m7.9375 28.035156h-2.644531v-1.324218h2.644531zm0 0" fill="url(#e)"/><path d="m23.816406 28.035156h2.644532v1.320313h-2.644532zm0 0" fill="url(#f)"/><path d="m6.613281 2.894531h18.523438c.730469 0 1.324219.59375 1.324219 1.324219v22.492188c0 .730468-.59375 1.324218-1.324219 1.324218h-18.523438c-.730469 0-1.320312-.59375-1.320312-1.324218v-22.492188c0-.730469.589843-1.324219 1.320312-1.324219zm0 0" fill="url(#h)"/><path d="m399.883094 175.022665c-44.169013 0-79.8349 35.665888-79.8349 80.071098v1360.027676c0 44.405211 35.665887 80.071098 79.8349 80.071098h120.224746v-1520.169872zm0 0" fill="url(#i)" stroke="#212121" stroke-linecap="round" stroke-width="11.338583" transform="scale(.016538)"/><path d="m6.613281 28.035156c-.730469 0-1.320312-.589844-1.320312-1.324218v-.164063c0 .730469.589843 1.320313 1.320312 1.320313h18.523438c.734375 0 1.324219-.589844 1.324219-1.320313v.164063c0 .734374-.589844 1.324218-1.324219 1.324218zm0 0" fill-opacity=".196078"/><path d="m6.613281 2.894531c-.730469 0-1.320312.589844-1.320312 1.324219v.164062c0-.730468.589843-1.324218 1.320312-1.320312h18.523438c.734375-.003906 1.324219.589844 1.324219 1.320312v-.164062c0-.734375-.589844-1.324219-1.324219-1.324219zm0 0" fill="#e6e6e6" fill-opacity=".392157"/><path d="m6.617188 2.800781c-.785157 0-1.417969.636719-1.417969 1.417969v22.492188c0 .785156.632812 1.417968 1.417969 1.417968h18.519531c.785156 0 1.417969-.632812 1.417969-1.417968v-22.492188c0-.78125-.632813-1.417969-1.417969-1.417969zm0 .1875h18.519531c.683593 0 1.230469.546875 1.230469 1.230469v22.492188c0 .683593-.546876 1.230468-1.230469 1.230468h-18.519531c-.683594 0-1.230469-.546875-1.230469-1.230468v-22.492188c0-.683594.546875-1.230469 1.230469-1.230469zm0 0" fill="#212121"/><path d="m148.17335-147.506445v359.840637h243.414255c5.874439 0 10.561492-4.749547 10.561492-10.561492v-338.717654c0-5.811945-4.687053-10.561491-10.561492-10.561491zm0 0" style="fill:none;stroke-width:8;stroke-linecap:round;stroke-linejoin:round;stroke-dasharray:16.000002 16.000002;stroke-dashoffset:7.200001;stroke:url(#k)" transform="matrix(.062506 0 0 .062506 0 13.438783)"/><path d="m349.279146-168.691922v254.03824c15.873484-42.370953 26.434975-42.370953 42.308459 0v-254.03824zm0 0" fill="url(#l)" stroke="#212121" stroke-linecap="round" stroke-linejoin="round" stroke-width="3" transform="matrix(.062506 0 0 .062506 0 13.438783)"/><path d="m12.292969 6.703125c-.257813-.257813-.675781-.257813-.933594 0-.257813.261719-.257813.679687 0 .9375l1.871094 1.871094-1.871094 1.871093c-.257813.257813-.257813.675782 0 .933594.257813.261719.675781.261719.933594 0l2.339843-2.335937c.015626-.015625.03125-.035157.046876-.050781.210937-.261719.195312-.644532-.046876-.886719zm0 0" fill="url(#m)"/><path d="m11.828125 6.511719c-.171875 0-.339844.0625-.46875.191406-.171875.171875-.230469.414063-.175781.632813.03125-.113282.089844-.21875.175781-.304688.257813-.261719.675781-.261719.933594 0l2.339843 2.339844c.089844.085937.144532.191406.175782.304687.054687-.21875-.003906-.460937-.175782-.632812l-2.339843-2.339844c-.128907-.128906-.296875-.191406-.464844-.191406zm1.238281 3.164062-1.707031 1.707031c-.171875.171876-.230469.410157-.175781.628907.03125-.109375.089844-.214844.175781-.304688l1.871094-1.871093zm0 0" fill="#fff"/><path d="m11.214844 7.421875c-.097656.238281-.050782.519531.144531.714844l1.621094 1.621093.25-.246093-1.871094-1.871094c-.066406-.066406-.113281-.140625-.144531-.21875zm3.566406 2.335937c-.027344.0625-.058594.117188-.101562.171876-.015626.015624-.03125.035156-.046876.050781l-2.339843 2.335937c-.257813.261719-.675781.261719-.933594 0-.066406-.0625-.113281-.136718-.144531-.21875-.097656.238282-.050782.523438.144531.714844.257813.261719.675781.261719.933594 0l2.339843-2.335938c.015626-.015624.03125-.035156.046876-.050781.15625-.191406.1875-.449219.101562-.667969zm0 0" fill-opacity=".235294"/><path d="m196.668719-107.760241c-4.124606-4.124606-10.811467-4.124606-14.936074 0-4.124606 4.1871-4.124606 10.873962 0 14.998568l29.934642 29.934641-29.934642 29.934642c-4.124606 4.124606-4.124606 10.811467 0 14.936073 4.124607 4.1871 10.811468 4.1871 14.936074 0l37.433925-37.371431c.249976-.249976.499953-.562446.749929-.812422 3.374677-4.187101 3.124701-10.311516-.749929-14.186146zm0 0" fill="none" stroke="#212121" stroke-linecap="round" stroke-width="3" transform="matrix(.062506 0 0 .062506 0 13.438783)"/><path d="m6.617188 2.800781c-.785157 0-1.417969.636719-1.417969 1.417969v22.492188c0 .785156.632812 1.417968 1.417969 1.417968h18.519531c.785156 0 1.417969-.632812 1.417969-1.417968v-22.492188c0-.78125-.632813-1.417969-1.417969-1.417969zm0 .1875h18.519531c.683593 0 1.230469.546875 1.230469 1.230469v22.492188c0 .683593-.546876 1.230468-1.230469 1.230468h-18.519531c-.683594 0-1.230469-.546875-1.230469-1.230468v-22.492188c0-.683594.546875-1.230469 1.230469-1.230469zm0 0" fill="#212121"/><path d="m5.292969 9.179688h3.308593v1.324218h-3.308593zm0 0" fill="url(#n)"/><path d="m5.292969 10.503906v.496094h3.308593v-.496094zm0 0" fill-opacity=".235294"/><path d="m5.292969 9.179688v.332031h3.308593v-.332031zm0 0" fill="#fff" fill-opacity=".392157"/><path d="m84.679434-20.514257h52.932445v21.185477h-52.932445zm0 0" fill="none" stroke="#212121" stroke-linecap="round" stroke-linejoin="round" stroke-width="3" transform="matrix(.062506 0 0 .062506 -.000001 10.461951)"/><path d="m5.292969 20.09375h3.308593v1.324219h-3.308593zm0 0" fill="url(#o)"/><path d="m5.292969 21.417969v.496093h3.308593v-.496093zm0 0" fill-opacity=".235294"/><path d="m5.292969 20.09375v.332031h3.308593v-.332031zm0 0" fill="#fff" fill-opacity=".392157"/><path d="m84.679434-20.530951h52.932445v21.185477h-52.932445zm0 0" fill="none" stroke="#212121" stroke-linecap="round" stroke-linejoin="round" stroke-width="3" transform="matrix(.062506 0 0 .062506 -.000001 21.377057)"/></svg>

<?xml version="1.0" encoding="UTF-8"?>
<svg xmlns="http://www.w3.org/2000/svg" xmlns:xlink="http://www.w3.org/1999/xlink" width="32px" height="32px" viewBox="0 0 32 32" version="1.1">
<defs>
<linearGradient id="linear0" gradientUnits="userSpaceOnUse" x1="254" y1="233.5" x2="254" y2="254.666672" gradientTransform="matrix(0.062506,0,0,0.062506,-0.00000381506,13.438785)">
<stop offset="0" style="stop-color:rgb(0%,0%,0%);stop-opacity:0.27451;"/>
<stop offset="1" style="stop-color:rgb(0%,0%,0%);stop-opacity:0;"/>
</linearGradient>
<radialGradient id="radial0" gradientUnits="userSpaceOnUse" cx="450.908936" cy="189.579361" fx="450.908936" fy="189.579361" r="21.166656" gradientTransform="matrix(0.00000017417,-0.0781325,-0.140638,-0.000000101539,50.146086,63.595333)">
<stop offset="0" style="stop-color:rgb(0%,0%,0%);stop-opacity:0.313726;"/>
<stop offset="0.222222" style="stop-color:rgb(0%,0%,0%);stop-opacity:0.27451;"/>
<stop offset="1" style="stop-color:rgb(0%,0%,0%);stop-opacity:0;"/>
</radialGradient>
<radialGradient id="radial1" gradientUnits="userSpaceOnUse" cx="450.908936" cy="189.579361" fx="450.908936" fy="189.579361" r="21.166656" gradientTransform="matrix(-0.00000017417,0.0781325,0.140638,0.000000101539,-18.393049,-7.52748)">
<stop offset="0" style="stop-color:rgb(0%,0%,0%);stop-opacity:0.313726;"/>
<stop offset="0.222222" style="stop-color:rgb(0%,0%,0%);stop-opacity:0.27451;"/>
<stop offset="1" style="stop-color:rgb(0%,0%,0%);stop-opacity:0;"/>
</radialGradient>
<radialGradient id="radial2" gradientUnits="userSpaceOnUse" cx="450.908936" cy="189.579361" fx="450.908936" fy="189.579361" r="21.166656" gradientTransform="matrix(-0.00000017417,-0.0781325,0.140638,-0.000000101539,-18.393049,63.595333)">
<stop offset="0" style="stop-color:rgb(0%,0%,0%);stop-opacity:0.313726;"/>
<stop offset="0.222222" style="stop-color:rgb(0%,0%,0%);stop-opacity:0.27451;"/>
<stop offset="1" style="stop-color:rgb(0%,0%,0%);stop-opacity:0;"/>
</radialGradient>
<radialGradient id="radial3" gradientUnits="userSpaceOnUse" cx="450.908936" cy="189.579361" fx="450.908936" fy="189.579361" r="21.166656" gradientTransform="matrix(0.00000017417,0.0781325,-0.140638,0.000000101539,50.146084,-7.527479)">
<stop offset="0" style="stop-color:rgb(0%,0%,0%);stop-opacity:0.313726;"/>
<stop offset="0.222222" style="stop-color:rgb(0%,0%,0%);stop-opacity:0.27451;"/>
<stop offset="1" style="stop-color:rgb(0%,0%,0%);stop-opacity:0;"/>
</radialGradient>
<linearGradient id="linear1" gradientUnits="userSpaceOnUse" x1="306.916656" y1="-25.791676" x2="305.954559" y2="-141.414581" gradientTransform="matrix(0.0753497,0,0,0.217412,-5.854013,33.641348)">
<stop offset="0" style="stop-color:rgb(25.882354%,25.882354%,25.882354%);stop-opacity:1;"/>
<stop offset="1" style="stop-color:rgb(38.039216%,38.039216%,38.039216%);stop-opacity:1;"/>
</linearGradient>
<linearGradient id="linear2" gradientUnits="userSpaceOnUse" x1="165.484848" y1="-25.791672" x2="165.484848" y2="-141.414581" gradientTransform="matrix(4.556143,0,0,13.146184,-353.972656,2034.180176)">
<stop offset="0" style="stop-color:rgb(25.882354%,25.882354%,25.882354%);stop-opacity:1;"/>
<stop offset="1" style="stop-color:rgb(38.039216%,38.039216%,38.039216%);stop-opacity:1;"/>
</linearGradient>
<linearGradient id="linear3" gradientUnits="userSpaceOnUse" x1="1040" y1="1695.118164" x2="1040" y2="175.118134" gradientTransform="matrix(0.264583,0,0,0.264583,-0.0000193333,-214.999756)">
<stop offset="0" style="stop-color:rgb(25.882354%,64.705884%,96.078432%);stop-opacity:1;"/>
<stop offset="1" style="stop-color:rgb(39.215687%,70.980394%,96.470588%);stop-opacity:1;"/>
</linearGradient>
<linearGradient id="linear4" gradientUnits="userSpaceOnUse" x1="840" y1="1115.117188" x2="840" y2="175.117218" gradientTransform="matrix(0.264583,0,0,0.264583,148.166656,-214.999756)">
<stop offset="0" style="stop-color:rgb(25.882354%,64.705884%,96.078432%);stop-opacity:1;"/>
<stop offset="1" style="stop-color:rgb(39.215687%,70.980394%,96.470588%);stop-opacity:1;"/>
</linearGradient>
<linearGradient id="linear5" gradientUnits="userSpaceOnUse" x1="243.416672" y1="233.5" x2="243.416672" y2="-168.666656" gradientTransform="matrix(0.062506,0,0,0.062506,0,13.438783)">
<stop offset="0" style="stop-color:rgb(74.117649%,74.117649%,74.117649%);stop-opacity:1;"/>
<stop offset="1" style="stop-color:rgb(87.843138%,87.843138%,87.843138%);stop-opacity:1;"/>
</linearGradient>
<linearGradient id="linear6" gradientUnits="userSpaceOnUse" x1="105.833344" y1="0.666667" x2="105.833344" y2="-20.499998" gradientTransform="matrix(0.062506,0,0,0.062506,-0.00000127095,10.461951)">
<stop offset="0" style="stop-color:rgb(25.882354%,25.882354%,25.882354%);stop-opacity:1;"/>
<stop offset="1" style="stop-color:rgb(38.039216%,38.039216%,38.039216%);stop-opacity:1;"/>
</linearGradient>
<linearGradient id="linear7" gradientUnits="userSpaceOnUse" x1="105.833344" y1="0.666667" x2="105.833344" y2="-20.499998" gradientTransform="matrix(0.062506,0,0,0.062506,-0.00000127095,21.377057)">
<stop offset="0" style="stop-color:rgb(25.882354%,25.882354%,25.882354%);stop-opacity:1;"/>
<stop offset="1" style="stop-color:rgb(38.039216%,38.039216%,38.039216%);stop-opacity:1;"/>
</linearGradient>
</defs>
<g id="surface1">
<path style=" stroke:none;fill-rule:nonzero;fill:url(#linear0);" d="M 7.9375 28.035156 L 23.816406 28.035156 L 23.816406 29.355469 L 7.9375 29.355469 Z M 7.9375 28.035156 "/>
<path style=" stroke:none;fill-rule:nonzero;fill:url(#radial0);" d="M 23.816406 28.035156 L 26.460938 28.035156 L 26.460938 26.710938 L 23.816406 26.710938 Z M 23.816406 28.035156 "/>
<path style=" stroke:none;fill-rule:nonzero;fill:url(#radial1);" d="M 7.9375 28.035156 L 5.292969 28.035156 L 5.292969 29.355469 L 7.9375 29.355469 Z M 7.9375 28.035156 "/>
<path style=" stroke:none;fill-rule:nonzero;fill:url(#radial2);" d="M 7.9375 28.035156 L 5.292969 28.035156 L 5.292969 26.710938 L 7.9375 26.710938 Z M 7.9375 28.035156 "/>
<path style=" stroke:none;fill-rule:nonzero;fill:url(#radial3);" d="M 23.816406 28.035156 L 26.460938 28.035156 L 26.460938 29.355469 L 23.816406 29.355469 Z M 23.816406 28.035156 "/>
<path style=" stroke:none;fill-rule:nonzero;fill:url(#linear1);" d="M 6.613281 2.894531 L 25.136719 2.894531 C 25.867188 2.894531 26.460938 3.488281 26.460938 4.21875 L 26.460938 26.710938 C 26.460938 27.441406 25.867188 28.035156 25.136719 28.035156 L 6.613281 28.035156 C 5.882812 28.035156 5.292969 27.441406 5.292969 26.710938 L 5.292969 4.21875 C 5.292969 3.488281 5.882812 2.894531 6.613281 2.894531 Z M 6.613281 2.894531 "/>
<path style="fill-rule:nonzero;fill:url(#linear2);stroke-width:11.338583;stroke-linecap:round;stroke-linejoin:miter;stroke:rgb(12.941177%,12.941177%,12.941177%);stroke-opacity:1;stroke-miterlimit:4;" d="M 399.883094 175.022665 C 355.714081 175.022665 320.048194 210.688553 320.048194 255.093763 L 320.048194 1615.121439 C 320.048194 1659.52665 355.714081 1695.192537 399.883094 1695.192537 L 520.10784 1695.192537 L 520.10784 175.022665 Z M 399.883094 175.022665 " transform="matrix(0.016538,0,0,0.016538,0,0)"/>
<path style=" stroke:none;fill-rule:nonzero;fill:rgb(0%,0%,0%);fill-opacity:0.196078;" d="M 6.613281 28.035156 C 5.882812 28.035156 5.292969 27.445312 5.292969 26.710938 L 5.292969 26.546875 C 5.292969 27.277344 5.882812 27.867188 6.613281 27.867188 L 25.136719 27.867188 C 25.871094 27.867188 26.460938 27.277344 26.460938 26.546875 L 26.460938 26.710938 C 26.460938 27.445312 25.871094 28.035156 25.136719 28.035156 Z M 6.613281 28.035156 "/>
<path style=" stroke:none;fill-rule:nonzero;fill:rgb(90.196079%,90.196079%,90.196079%);fill-opacity:0.392157;" d="M 6.613281 2.894531 C 5.882812 2.894531 5.292969 3.484375 5.292969 4.21875 L 5.292969 4.382812 C 5.292969 3.652344 5.882812 3.058594 6.613281 3.0625 L 25.136719 3.0625 C 25.871094 3.058594 26.460938 3.652344 26.460938 4.382812 L 26.460938 4.21875 C 26.460938 3.484375 25.871094 2.894531 25.136719 2.894531 Z M 6.613281 2.894531 "/>
<path style=" stroke:none;fill-rule:nonzero;fill:rgb(12.941177%,12.941177%,12.941177%);fill-opacity:1;" d="M 6.617188 2.800781 C 5.832031 2.800781 5.199219 3.4375 5.199219 4.21875 L 5.199219 26.710938 C 5.199219 27.496094 5.832031 28.128906 6.617188 28.128906 L 25.136719 28.128906 C 25.921875 28.128906 26.554688 27.496094 26.554688 26.710938 L 26.554688 4.21875 C 26.554688 3.4375 25.921875 2.800781 25.136719 2.800781 Z M 6.617188 2.988281 L 25.136719 2.988281 C 25.820312 2.988281 26.367188 3.535156 26.367188 4.21875 L 26.367188 26.710938 C 26.367188 27.394531 25.820312 27.941406 25.136719 27.941406 L 6.617188 27.941406 C 5.933594 27.941406 5.386719 27.394531 5.386719 26.710938 L 5.386719 4.21875 C 5.386719 3.535156 5.933594 2.988281 6.617188 2.988281 Z M 6.617188 2.988281 "/>
<path style="fill:none;stroke-width:8;stroke-linecap:round;stroke-linejoin:round;stroke:url(#linear3);stroke-dasharray:16.000002,16.000002;stroke-dashoffset:7.200001;stroke-miterlimit:4;" d="M 148.17335 -147.506445 L 148.17335 212.334192 L 391.587605 212.334192 C 397.462044 212.334192 402.149097 207.584645 402.149097 201.7727 L 402.149097 -136.944954 C 402.149097 -142.756899 397.462044 -147.506445 391.587605 -147.506445 Z M 148.17335 -147.506445 " transform="matrix(0.062506,0,0,0.062506,0,13.438783)"/>
<path style="fill-rule:nonzero;fill:url(#linear4);stroke-width:3;stroke-linecap:round;stroke-linejoin:round;stroke:rgb(12.941177%,12.941177%,12.941177%);stroke-opacity:1;stroke-miterlimit:4;" d="M 349.279146 -168.691922 L 349.279146 85.346318 C 365.15263 42.975365 375.714121 42.975365 391.587605 85.346318 L 391.587605 -168.691922 Z M 349.279146 -168.691922 " transform="matrix(0.062506,0,0,0.062506,0,13.438783)"/>
<path style=" stroke:none;fill-rule:nonzero;fill:url(#linear5);" d="M 12.292969 6.703125 C 12.035156 6.445312 11.617188 6.445312 11.359375 6.703125 C 11.101562 6.964844 11.101562 7.382812 11.359375 7.640625 L 13.230469 9.511719 L 11.359375 11.382812 C 11.101562 11.640625 11.101562 12.058594 11.359375 12.316406 C 11.617188 12.578125 12.035156 12.578125 12.292969 12.316406 L 14.632812 9.980469 C 14.648438 9.964844 14.664062 9.945312 14.679688 9.929688 C 14.890625 9.667969 14.875 9.285156 14.632812 9.042969 Z M 12.292969 6.703125 "/>
<path style=" stroke:none;fill-rule:nonzero;fill:rgb(100%,100%,100%);fill-opacity:1;" d="M 11.828125 6.511719 C 11.65625 6.511719 11.488281 6.574219 11.359375 6.703125 C 11.1875 6.875 11.128906 7.117188 11.183594 7.335938 C 11.214844 7.222656 11.273438 7.117188 11.359375 7.03125 C 11.617188 6.769531 12.035156 6.769531 12.292969 7.03125 L 14.632812 9.371094 C 14.722656 9.457031 14.777344 9.5625 14.808594 9.675781 C 14.863281 9.457031 14.804688 9.214844 14.632812 9.042969 L 12.292969 6.703125 C 12.164062 6.574219 11.996094 6.511719 11.828125 6.511719 Z M 13.066406 9.675781 L 11.359375 11.382812 C 11.1875 11.554688 11.128906 11.792969 11.183594 12.011719 C 11.214844 11.902344 11.273438 11.796875 11.359375 11.707031 L 13.230469 9.835938 Z M 13.066406 9.675781 "/>
<path style=" stroke:none;fill-rule:nonzero;fill:rgb(0%,0%,0%);fill-opacity:0.235294;" d="M 11.214844 7.421875 C 11.117188 7.660156 11.164062 7.941406 11.359375 8.136719 L 12.980469 9.757812 L 13.230469 9.511719 L 11.359375 7.640625 C 11.292969 7.574219 11.246094 7.5 11.214844 7.421875 Z M 14.78125 9.757812 C 14.753906 9.820312 14.722656 9.875 14.679688 9.929688 C 14.664062 9.945312 14.648438 9.964844 14.632812 9.980469 L 12.292969 12.316406 C 12.035156 12.578125 11.617188 12.578125 11.359375 12.316406 C 11.292969 12.253906 11.246094 12.179688 11.214844 12.097656 C 11.117188 12.335938 11.164062 12.621094 11.359375 12.8125 C 11.617188 13.074219 12.035156 13.074219 12.292969 12.8125 L 14.632812 10.476562 C 14.648438 10.460938 14.664062 10.441406 14.679688 10.425781 C 14.835938 10.234375 14.867188 9.976562 14.78125 9.757812 Z M 14.78125 9.757812 "/>
<path style="fill:none;stroke-width:3;stroke-linecap:round;stroke-linejoin:miter;stroke:rgb(12.941177%,12.941177%,12.941177%);stroke-opacity:1;stroke-miterlimit:4;" d="M 196.668719 -107.760241 C 192.544113 -111.884847 185.857252 -111.884847 181.732645 -107.760241 C 177.608039 -103.573141 177.608039 -96.886279 181.732645 -92.761673 L 211.667287 -62.827032 L 181.732645 -32.89239 C 177.608039 -28.767784 177.608039 -22.080923 181.732645 -17.956317 C 185.857252 -13.769217 192.544113 -13.769217 196.668719 -17.956317 L 234.102644 -55.327748 C 234.35262 -55.577724 234.602597 -55.890194 234.852573 -56.14017 C 238.22725 -60.327271 237.977274 -66.451686 234.102644 -70.326316 Z M 196.668719 -107.760241 " transform="matrix(0.062506,0,0,0.062506,0,13.438783)"/>
<path style=" stroke:none;fill-rule:nonzero;fill:rgb(12.941177%,12.941177%,12.941177%);fill-opacity:1;" d="M 6.617188 2.800781 C 5.832031 2.800781 5.199219 3.4375 5.199219 4.21875 L 5.199219 26.710938 C 5.199219 27.496094 5.832031 28.128906 6.617188 28.128906 L 25.136719 28.128906 C 25.921875 28.128906 26.554688 27.496094 26.554688 26.710938 L 26.554688 4.21875 C 26.554688 3.4375 25.921875 2.800781 25.136719 2.800781 Z M 6.617188 2.988281 L 25.136719 2.988281 C 25.820312 2.988281 26.367188 3.535156 26.367188 4.21875 L 26.367188 26.710938 C 26.367188 27.394531 25.820312 27.941406 25.136719 27.941406 L 6.617188 27.941406 C 5.933594 27.941406 5.386719 27.394531 5.386719 26.710938 L 5.386719 4.21875 C 5.386719 3.535156 5.933594 2.988281 6.617188 2.988281 Z M 6.617188 2.988281 "/>
<path style=" stroke:none;fill-rule:nonzero;fill:url(#linear6);" d="M 5.292969 9.179688 L 8.601562 9.179688 L 8.601562 10.503906 L 5.292969 10.503906 Z M 5.292969 9.179688 "/>
<path style=" stroke:none;fill-rule:nonzero;fill:rgb(0%,0%,0%);fill-opacity:0.235294;" d="M 5.292969 10.503906 L 5.292969 11 L 8.601562 11 L 8.601562 10.503906 Z M 5.292969 10.503906 "/>
<path style=" stroke:none;fill-rule:nonzero;fill:rgb(100%,100%,100%);fill-opacity:0.392157;" d="M 5.292969 9.179688 L 5.292969 9.511719 L 8.601562 9.511719 L 8.601562 9.179688 Z M 5.292969 9.179688 "/>
<path style="fill:none;stroke-width:3;stroke-linecap:round;stroke-linejoin:round;stroke:rgb(12.941177%,12.941177%,12.941177%);stroke-opacity:1;stroke-miterlimit:4;" d="M 84.679434 -20.514257 L 137.611879 -20.514257 L 137.611879 0.67122 L 84.679434 0.67122 Z M 84.679434 -20.514257 " transform="matrix(0.062506,0,0,0.062506,-0.00000127095,10.461951)"/>
<path style=" stroke:none;fill-rule:nonzero;fill:url(#linear7);" d="M 5.292969 20.09375 L 8.601562 20.09375 L 8.601562 21.417969 L 5.292969 21.417969 Z M 5.292969 20.09375 "/>
<path style=" stroke:none;fill-rule:nonzero;fill:rgb(0%,0%,0%);fill-opacity:0.235294;" d="M 5.292969 21.417969 L 5.292969 21.914062 L 8.601562 21.914062 L 8.601562 21.417969 Z M 5.292969 21.417969 "/>
<path style=" stroke:none;fill-rule:nonzero;fill:rgb(100%,100%,100%);fill-opacity:0.392157;" d="M 5.292969 20.09375 L 5.292969 20.425781 L 8.601562 20.425781 L 8.601562 20.09375 Z M 5.292969 20.09375 "/>
<path style="fill:none;stroke-width:3;stroke-linecap:round;stroke-linejoin:round;stroke:rgb(12.941177%,12.941177%,12.941177%);stroke-opacity:1;stroke-miterlimit:4;" d="M 84.679434 -20.530951 L 137.611879 -20.530951 L 137.611879 0.654526 L 84.679434 0.654526 Z M 84.679434 -20.530951 " transform="matrix(0.062506,0,0,0.062506,-0.00000127095,21.377057)"/>
</g>
</svg>
